round/svg/filter_7.svg

<svg xmlns="http://www.w3.org/2000/svg" width="24" height="24"><path fill="none" d="M0 0h24v24H0V0z"/><g fill="currentColor"><path d="M2 5c-.55 0-1 .45-1 1v15c0 1.1.9 2 2 2h15c.55 0 1-.45 1-1s-.45-1-1-1H4c-.55 0-1-.45-1-1V6c0-.55-.45-1-1-1zm19-4H7c-1.1 0-2 .9-2 2v14c0 1.1.9 2 2 2h14c1.1 0 2-.9 2-2V3c0-1.1-.9-2-2-2zm-1 16H8c-.55 0-1-.45-1-1V4c0-.55.45-1 1-1h12c.55 0 1 .45 1 1v12c0 .55-.45 1-1 1zm-6.75-2.49l3.58-7.17c.11-.22.17-.47.17-.72 0-.9-.72-1.62-1.62-1.62H12c-.55 0-1 .45-1 1s.45 1 1 1h3l-3.36 6.71a.89.89 0 0 0 .8 1.29h.01c.34 0 .65-.19.8-.49z"/></g></svg>

<?xml version="1.0" encoding="utf-8"?>
<!-- Generator: Adobe Illustrator 19.1.0, SVG Export Plug-In . SVG Version: 6.00 Build 0)  -->
<svg version="1.1" xmlns="http://www.w3.org/2000/svg" xmlns:xlink="http://www.w3.org/1999/xlink" x="0px" y="0px" width="24px"
	 height="24px" viewBox="0 0 24 24" enable-background="new 0 0 24 24" xml:space="preserve">
<g id="Bounding_Boxes">
	<g id="ui_x5F_spec_x5F_header_copy_3">
	</g>
	<path fill="none" d="M0,0h24v24H0V0z"/>
</g>
<g id="Rounded" fill="currentColor">
	<g id="ui_x5F_spec_x5F_header_copy_7">
	</g>
	<path d="M2,5L2,5C1.45,5,1,5.45,1,6v15c0,1.1,0.9,2,2,2h15c0.55,0,1-0.45,1-1v0c0-0.55-0.45-1-1-1H4c-0.55,0-1-0.45-1-1V6
		C3,5.45,2.55,5,2,5z M21,1H7C5.9,1,5,1.9,5,3v14c0,1.1,0.9,2,2,2h14c1.1,0,2-0.9,2-2V3C23,1.9,22.1,1,21,1z M20,17H8
		c-0.55,0-1-0.45-1-1V4c0-0.55,0.45-1,1-1h12c0.55,0,1,0.45,1,1v12C21,16.55,20.55,17,20,17z M13.25,14.51l3.58-7.17
		C16.94,7.12,17,6.87,17,6.62v0C17,5.72,16.28,5,15.38,5H12c-0.55,0-1,0.45-1,1v0c0,0.55,0.45,1,1,1h3l-3.36,6.71
		c-0.3,0.59,0.13,1.29,0.8,1.29h0.01C12.79,15,13.1,14.81,13.25,14.51z"/>
</g>
</svg>
